X:114
T:Chamberlain Election
C:Matthew Welch, 1767
L:1/8
M:2/2
S:Colin Hume's website,  colinhume.com  - chords can also be printed below the stave.
N:A-music is bouncy (1-2-3-hop); B-music is smooth.
Q:1/4=130
K:G
P:A
|: "D7"d>c | "G"cBdB "D/F#"BAdA | "Em"AGFA "G/D"GFED | "C"c2 cc "G"B2BB | "D"AdAF "D7"D2 d>c |
"G"cBdB "D/F#"BAdA | "Em"AGFA "G/D"GFED | "C"EDED "Am"c3B | "D7"cAGF "G"G2 :|
P:B
|: z2 | "G"B3c "D/F#"AFGA | "Em"B3c "D"AFGA | "G"BG "Am"cG "G/B"dG "C"eG | "Am"edcB "D7"B2A2 |
"G"B3c "D/F#"AFGA | "Em"B3c "D"AFGA | "C"gfed "Am"ecBA | "D7"BdFA "G"G2 :|

